X:1
T:James Gibb editions
T:Saviour, abide with us - Barnby
%%score [ ( 1 2 ) ( 3 4 ) ]
L:1/8
Q:1/4=66
M:4/4
K:C
V:1 treble nm="Midi_74"
V:2 treble 
V:3 bass nm="Midi_74"
V:4 bass 
V:1
"^Saviour, abide with us""^Joseph Barnby\n(1838-96)""^S.M." c2 | B2 A2 A2 ^G2 | A6 || B2 | %4
 c2 B2"^1" d2"^r" B2 | ^G6 ||[M:4/4] E2 | A2 B2 c2 B2 | c2 d2"^1" e2 || e2 | d2 cB A2 B2 | A6 || %12
 A4 A4 |] %13
V:2
 E2 | E2 E2 D2 EF | E6 || E2 | E2 E2 D2 F2 | E6 ||[M:4/4] E2 | E2 E2 E2 E2 | E2 A2 ^G2 || A=G | %10
 F2 F2 E2 ^G2 | A6 || F4 E4 |] %13
V:3
 A,2 | D2 C2 B,2 B,2 | A,6 || ^G,2 | A,2 B,2 A,2 D2 | B,6 ||[M:4/4] ^G,2 | A,2 ^G,2 A,2 G,2 | %8
 A,2 A,2 B,2 || A,2 | A,2 D2 C2 D2 | C6 || D4 C4 |] %13
V:4
 A,,2 | ^G,,2 A,,2 F,2 E,D, | C,6 || E,2 | A,2 =G,2 F,2 D,2 | E,6 ||[M:4/4] D,2 | C,2 E,2 A,2 E,2 | %8
 A,2 =G,F, E,-D, || ^C,2 | D,2 D,2 E,2 E,2 | A,,6 || D,4 A,,4 |] %13

